; generated by Slic3r 0.9.10b on 2019-02-17 at 20:31:16

; layer_height = 0.2
; perimeters = 3
; top_solid_layers = 6
; bottom_solid_layers = 6
; fill_density = 1
; perimeter_speed = 30
; infill_speed = 30
; travel_speed = 200
; nozzle_diameter = 0.35
; filament_diameter = 1.75
; extrusion_multiplier = 1.0
; perimeters extrusion width = 0.52mm
; infill extrusion width = 0.52mm
; solid infill extrusion width = 0.52mm
; top infill extrusion width = 0.52mm
; support material extrusion width = 0.52mm

G21 ; set units to millimeters
M107
M190 S40 ; wait for bed temperature to be reached
M104 S195 ; set temperature
G28
G1 Z300  F7500
M42 P6 S255;Turns on PEEK fan
M109 S195 ; wait for temperature to be reached
G90 ; use absolute coordinates
G92 E0
M82 ; use absolute distances for extrusion
G1 F3300.000 E-5.00000
G1 Z0.500 F12000.000
G92 E0
G1 X-44.686 Y-2.101
G1 Z0.300
G1 F3300.000 E5.00000
G1 X-44.716 Y-2.801 F540.000 E5.04204
G1 X-44.686 Y-3.491 E5.08348
G1 X-44.556 Y-4.161 E5.12443
G1 X-36.396 Y-33.521 E6.95280
G1 X-36.256 Y-33.951 E6.97993
G1 X-30.586 Y-48.381 E7.91017
G1 X-30.426 Y-48.741 E7.93381
G1 X-30.066 Y-49.351 E7.97631
G1 X-29.406 Y-50.181 E8.03993
G1 X-28.576 Y-50.831 E8.10319
G1 X-28.276 Y-51.011 E8.12418
G1 X-27.116 Y-51.501 E8.19973
G1 X-25.856 Y-51.641 E8.27580
G1 X-17.396 Y-51.411 E8.78359
G1 X-6.096 Y-50.771 E9.46267
G1 X4.044 Y-49.681 E10.07458
G1 X5.194 Y-49.391 E10.14574
G1 X6.224 Y-48.821 E10.21637
G1 X42.934 Y-21.341 E12.96773
G1 X43.894 Y-20.361 E13.05004
G1 X44.504 Y-19.131 E13.13242
G1 X44.714 Y-17.781 E13.21439
G1 X44.714 Y-13.741 E13.45679
G1 X44.684 Y-13.241 E13.48685
G1 X44.604 Y-12.741 E13.51723
G1 X33.754 Y34.149 E16.40496
G1 X33.614 Y34.699 E16.43902
G1 X33.034 Y36.009 E16.52498
G1 X32.074 Y37.079 E16.61123
G1 X31.584 Y37.469 E16.64880
G1 X31.084 Y37.809 E16.68508
G1 X21.474 Y43.519 E17.35579
G1 X6.344 Y51.169 E18.37303
G1 X5.184 Y51.559 E18.44646
G1 X3.964 Y51.629 E18.51978
G1 X-16.356 Y49.879 E19.74349
G1 X-16.786 Y49.819 E19.76954
G1 X-17.206 Y49.719 E19.79544
G1 X-30.036 Y46.019 E20.59662
G1 X-30.486 Y45.859 E20.62527
G1 X-30.916 Y45.659 E20.65373
G1 X-38.116 Y41.769 E21.14474
G1 X-39.306 Y40.839 E21.23536
G1 X-40.116 Y39.559 E21.32625
G1 X-40.906 Y37.649 E21.45026
G1 X-41.046 Y37.229 E21.47683
G1 X-41.156 Y36.809 E21.50288
G1 X-41.706 Y34.009 E21.67409
G1 X-41.766 Y33.609 E21.69836
G1 X-42.126 Y30.129 E21.90827
G1 X-44.680 Y-2.029 E23.84383
G1 X-44.206 Y-2.141 F12000.000
G1 X-44.236 Y-2.821 F540.000 E23.88467
G1 X-44.216 Y-3.431 E23.92129
G1 X-44.096 Y-4.031 E23.95800
G1 X-35.936 Y-33.391 E25.78637
G1 X-35.806 Y-33.781 E25.81104
G1 X-30.136 Y-48.211 E26.74128
G1 X-29.986 Y-48.531 E26.76248
G1 X-29.656 Y-49.101 E26.80200
G1 X-29.076 Y-49.841 E26.85842
G1 X-28.326 Y-50.421 E26.91530
G1 X-28.026 Y-50.601 E26.93629
G1 X-26.986 Y-51.031 E27.00382
G1 X-25.876 Y-51.161 E27.07087
G1 X-17.416 Y-50.931 E27.57866
G1 X-6.116 Y-50.291 E28.25775
G1 X3.994 Y-49.201 E28.86786
G1 X5.014 Y-48.951 E28.93087
G1 X5.934 Y-48.431 E28.99428
G1 X42.644 Y-20.951 E31.74564
G1 X43.504 Y-20.081 E31.81904
G1 X44.044 Y-18.991 E31.89203
G1 X44.234 Y-17.781 E31.96552
G1 X44.234 Y-13.741 E32.20792
G1 X44.214 Y-13.291 E32.23494
G1 X44.134 Y-12.851 E32.26177
G1 X33.284 Y34.029 E35.14893
G1 X33.144 Y34.579 E35.18298
G1 X32.634 Y35.749 E35.25956
G1 X31.774 Y36.699 E35.33644
G1 X31.284 Y37.089 E35.37402
G1 X30.844 Y37.399 E35.40631
G1 X21.544 Y42.929 E36.05551
G1 X21.074 Y43.189 E36.08774
G1 X6.134 Y50.739 E37.09210
G1 X5.094 Y51.089 E37.15794
G1 X4.004 Y51.149 E37.22344
G1 X-16.316 Y49.399 E38.44715
G1 X-16.696 Y49.349 E38.47015
G1 X-17.076 Y49.259 E38.49358
G1 X-29.906 Y45.559 E39.29475
G1 X-30.306 Y45.419 E39.32018
G1 X-30.686 Y45.239 E39.34541
G1 X-37.886 Y41.349 E39.83642
G1 X-38.946 Y40.509 E39.91757
G1 X-39.666 Y39.369 E39.99847
G1 X-40.456 Y37.459 E40.12249
G1 X-40.586 Y37.089 E40.14602
G1 X-40.686 Y36.709 E40.16960
G1 X-41.236 Y33.909 E40.34081
G1 X-41.286 Y33.559 E40.36202
G1 X-41.646 Y30.089 E40.57134
G1 X-44.200 Y-2.069 E42.50690
G1 X-43.726 Y-2.171 F12000.000
G1 X-43.756 Y-2.841 F540.000 E42.54714
G1 X-43.736 Y-3.371 E42.57896
G1 X-43.626 Y-3.901 E42.61144
G1 X-35.466 Y-33.261 E44.43981
G1 X-35.356 Y-33.601 E44.46125
G1 X-29.686 Y-48.031 E45.39149
G1 X-29.556 Y-48.311 E45.41001
G1 X-29.246 Y-48.841 E45.44685
G1 X-28.736 Y-49.501 E45.49690
G1 X-28.076 Y-50.001 E45.54658
G1 X-27.776 Y-50.181 E45.56757
G1 X-26.866 Y-50.571 E45.62697
G1 X-25.886 Y-50.681 E45.68614
G1 X-17.446 Y-50.451 E46.19273
G1 X-6.146 Y-49.811 E46.87182
G1 X3.934 Y-48.721 E47.48014
G1 X4.844 Y-48.501 E47.53632
G1 X5.654 Y-48.051 E47.59191
G1 X42.364 Y-20.571 E50.34327
G1 X43.114 Y-19.801 E50.40777
G1 X43.594 Y-18.841 E50.47217
G1 X43.754 Y-17.781 E50.53649
G1 X43.754 Y-13.741 E50.77889
G1 X43.734 Y-13.341 E50.80292
G1 X43.664 Y-12.961 E50.82610
G1 X32.834 Y33.829 E53.70772
G1 X32.674 Y34.459 E53.74672
G1 X32.224 Y35.489 E53.81416
G1 X31.474 Y36.319 E53.88128
G1 X30.984 Y36.709 E53.91886
G1 X30.594 Y36.979 E53.94732
G1 X20.854 Y42.759 E54.62687
G1 X5.914 Y50.309 E55.63123
G1 X5.004 Y50.619 E55.68891
G1 X4.044 Y50.669 E55.74659
G1 X-16.276 Y48.919 E56.97030
G1 X-16.606 Y48.869 E56.99033
G1 X-16.936 Y48.789 E57.01070
G1 X-29.766 Y45.089 E57.81187
G1 X-30.126 Y44.969 E57.83464
G1 X-30.456 Y44.809 E57.85665
G1 X-37.656 Y40.919 E58.34767
G1 X-38.596 Y40.189 E58.41908
G1 X-39.226 Y39.189 E58.48999
G1 X-40.016 Y37.279 E58.61401
G1 X-40.126 Y36.959 E58.63431
G1 X-40.216 Y36.619 E58.65541
G1 X-40.766 Y33.819 E58.82662
G1 X-40.806 Y33.509 E58.84538
G1 X-41.166 Y30.059 E59.05350
G1 X-43.720 Y-2.099 E60.98906
G1 F3300.000 E55.98906
G1 Z0.500 F12000.000
G92 E0
G1 X14.605 Y10.391
G1 Z0.300
G1 F3300.000 E5.00000
G1 X15.263 Y8.315 F432.000 E5.13066
G1 X16.068 Y7.120 E5.21712
G1 X18.472 Y6.719 E5.36330
G1 X21.197 Y5.454 E5.54357
G1 X22.125 Y5.324 E5.59982
G1 X23.136 Y5.343 E5.66047
G1 X24.170 Y5.485 E5.72310
G1 X25.160 Y5.729 E5.78431
G1 X26.040 Y6.055 E5.84062
G1 X26.748 Y6.451 E5.88927
G1 X27.218 Y6.925 E5.92934
G1 X27.751 Y8.973 E6.05628
G1 X27.947 Y11.454 E6.20560
G1 X27.906 Y14.215 E6.37130
G1 X27.719 Y17.074 E6.54324
G1 X27.252 Y22.336 E6.86020
G1 X27.130 Y24.650 E6.99922
G1 X20.279 Y23.139 E7.42015
G1 X13.046 Y23.842 E7.85613
G1 X13.098 Y21.619 E7.98957
G1 X13.288 Y19.000 E8.14707
G1 X13.610 Y16.044 E8.32550
G1 X14.052 Y13.069 E8.50600
G1 X14.590 Y10.462 E8.66571
G1 X15.071 Y10.271 F12000.000
G1 F3300.000 E3.66571
G1 Z0.500 F12000.000
G92 E0
G1 X15.724 Y2.717
G1 X20.825 Y1.140
G1 X24.458 Y1.117
G1 X31.263 Y3.886
G1 X32.389 Y14.339
G1 X32.229 Y35.118
G1 X20.757 Y42.272
G1 X4.890 Y50.289
G1 X0.910 Y49.367
G1 X-3.573 Y45.277
G1 X-6.754 Y40.010
G1 X-7.610 Y37.550
G1 X3.228 Y25.847
G1 Z0.300
G1 F3300.000 E5.00000
G1 X3.228 Y29.129 F540.000 E5.19693
G1 X2.215 Y30.028 E5.27824
G1 X1.389 Y30.959 E5.35290
G1 X0.581 Y31.937 E5.42899
G1 X-0.285 Y32.884 E5.50598
G1 X-1.286 Y33.720 E5.58423
G1 X-2.498 Y34.357 E5.66636
G1 X-4.198 Y34.756 E5.77115
G1 X-4.359 Y33.974 E5.81906
G1 X-4.902 Y32.197 E5.93053
G1 X-5.040 Y31.541 E5.97077
G1 X-5.095 Y30.854 E6.01212
G1 X-5.026 Y30.128 E6.05585
G1 X-4.570 Y29.040 E6.12663
G1 X-3.727 Y28.097 E6.20253
G1 X-2.604 Y27.315 E6.28465
G1 X-1.288 Y26.693 E6.37196
G1 X0.137 Y26.238 E6.46176
G1 X1.591 Y25.957 E6.55056
G1 X3.156 Y25.852 E6.64471
G1 X2.997 Y26.269 F12000.000
G1 X4.609 Y25.864
G1 X5.661 Y25.864 F540.000 E6.70786
G1 X7.101 Y26.469 E6.80156
G1 X8.417 Y27.120 E6.88965
G1 X9.626 Y27.873 E6.97513
G1 X10.703 Y28.767 E7.05911
G1 X11.618 Y29.841 E7.14375
G1 X12.342 Y31.128 E7.23236
G1 X12.846 Y32.653 E7.32873
G1 X12.964 Y33.238 E7.36455
G1 X13.061 Y33.903 E7.40487
G1 X13.117 Y34.616 E7.44774
G1 X13.114 Y35.336 E7.49095
G1 X13.028 Y36.026 E7.53269
G1 X12.834 Y36.651 E7.57194
G1 X12.412 Y37.292 E7.61797
G1 X12.053 Y37.142 E7.64132
G1 X11.641 Y37.059 E7.66655
G1 X11.132 Y37.032 E7.69711
G1 X10.331 Y37.045 E7.74523
G1 X10.331 Y36.637 E7.76967
G1 X9.475 Y33.594 E7.95934
G1 X9.164 Y33.123 E7.99321
G1 X8.763 Y32.712 E8.02765
G1 X8.290 Y32.355 E8.06318
G1 X7.760 Y32.038 E8.10024
G1 X7.189 Y31.747 E8.13871
G1 X5.876 Y31.126 E8.22587
G1 X5.784 Y30.369 E8.27161
G1 X5.615 Y29.546 E8.32200
G1 X5.147 Y27.715 E8.43539
G1 X4.630 Y25.933 E8.54676
G1 X5.046 Y26.064 F12000.000
G1 X5.732 Y25.604
G1 X4.298 Y25.604
G1 X5.661 Y31.283
G1 X6.349 Y33.885
G1 X6.635 Y34.318
G1 X7.147 Y34.575 F540.000 E8.58115
G1 X7.878 Y35.871 E8.67043
G1 X8.658 Y37.160 E8.76083
G1 X9.339 Y38.480 E8.84995
G1 X9.725 Y39.803 E8.93262
G1 X9.589 Y41.090 E9.01032
G1 X8.711 Y42.234 E9.09682
G1 X6.822 Y43.224 E9.22478
G1 X5.859 Y42.141 E9.31170
G1 X5.855 Y39.902 E9.44605
G1 X5.891 Y38.725 E9.51669
G1 X5.968 Y37.552 E9.58725
G1 X6.096 Y36.434 E9.65476
G1 X6.288 Y35.422 E9.71654
G1 X6.613 Y34.387 E9.78163
G1 X6.920 Y34.705 F12000.000
G1 X7.348 Y34.385
G1 X6.349 Y33.885
G1 X2.879 Y33.171
G1 X2.727 Y34.989
G1 X2.721 Y38.221 F540.000 E9.97559
G1 X2.757 Y39.741 E10.06678
G1 X2.905 Y41.139 E10.15114
G1 X3.223 Y42.360 E10.22687
G1 X3.819 Y43.460 E10.30193
G1 X3.589 Y45.303 E10.41337
G1 X2.994 Y45.303 E10.44906
G1 X2.314 Y44.704 E10.50343
G1 X0.912 Y43.595 E10.61070
G1 X0.225 Y42.964 E10.66670
G1 X-0.375 Y42.242 E10.72299
G1 X-0.821 Y41.400 E10.78016
G1 X-1.053 Y40.386 E10.84258
G1 X-0.322 Y38.099 E10.98661
G1 X0.044 Y37.043 E11.05368
G1 X0.443 Y36.027 E11.11917
G1 X0.892 Y35.054 E11.18350
G1 X1.412 Y34.126 E11.24728
G1 X2.131 Y33.087 E11.32309
G1 X2.637 Y33.340 E11.35703
G1 X2.723 Y34.917 E11.45174
G1 X2.315 Y35.236 F12000.000
G1 X3.692 Y35.006
G1 X3.567 Y32.730 F540.000 E11.58852
G1 X1.874 Y31.883 E11.70212
G1 X2.896 Y30.710 E11.79550
G1 X4.550 Y29.242 E11.92819
G1 X4.834 Y30.524 E12.00696
G1 X4.985 Y31.768 E12.08213
G1 X6.766 Y32.611 E12.20035
G1 X7.295 Y32.881 E12.23598
G1 X7.672 Y33.106 E12.26235
G1 X7.748 Y33.049 E12.26806
G1 X8.606 Y33.929 E12.34180
G1 X8.573 Y33.975 E12.34517
G1 X8.879 Y35.031 E12.41113
G1 X8.579 Y35.155 E12.43061
G1 X7.841 Y33.846 E12.52082
G1 X6.055 Y32.953 E12.64058
G1 X5.353 Y35.188 E12.78113
G1 X5.144 Y36.290 E12.84841
G1 X5.010 Y37.466 E12.91943
G1 X4.930 Y38.679 E12.99238
G1 X4.893 Y39.884 E13.06471
G1 X4.901 Y42.511 E13.22238
G1 X6.250 Y44.029 E13.34418
G1 X5.161 Y45.091 E13.43548
G1 X4.512 Y45.675 E13.48786
G1 X4.812 Y43.273 E13.63313
G1 X4.125 Y42.005 E13.71969
G1 X3.854 Y40.966 E13.78408
G1 X3.718 Y39.678 E13.86177
G1 X3.683 Y38.213 E13.94970
G1 X3.692 Y35.078 E14.13781
G1 X2.879 Y33.171 F12000.000
G1 X1.960 Y32.712
G1 X-1.143 Y33.950
G1 X0.474 Y33.830
G1 X0.034 Y34.616 F540.000 E14.19184
G1 X-0.443 Y35.649 E14.26011
G1 X-0.859 Y36.709 E14.32845
G1 X-1.235 Y37.794 E14.39731
G1 X-1.953 Y40.041 E14.53884
G1 X-2.949 Y38.198 E14.66450
G1 X-3.937 Y35.982 E14.81009
G1 X-4.037 Y35.706 E14.82767
G1 X-2.158 Y35.265 E14.94344
G1 X-0.748 Y34.524 E15.03905
G1 X0.278 Y33.667 E15.11924
G1 X0.419 Y33.784 E15.13022
G1 X-1.143 Y33.950 F12000.000
G1 X1.960 Y32.712
G1 X6.349 Y33.885
G1 X7.348 Y34.385
G1 X10.193 Y37.260
G1 X10.204 Y38.010
G1 X11.120 Y37.994 F540.000 E15.18520
G1 X11.530 Y38.015 E15.20985
G1 X11.746 Y38.056 E15.22306
G1 X12.410 Y38.333 E15.26623
G1 X11.774 Y39.469 E15.34433
G1 X11.260 Y40.318 E15.40385
G1 X10.754 Y41.102 E15.45984
G1 X10.562 Y41.034 E15.47207
G1 X10.702 Y39.715 E15.55164
G1 X10.224 Y38.079 E15.65388
G1 X9.787 Y38.301 F12000.000
G1 X9.078 Y36.925 F540.000 E15.74675
G1 X8.294 Y35.628 E15.83769
G1 X7.494 Y34.210 E15.93536
G1 X6.345 Y33.636 E16.01244
G1 X5.820 Y35.305 E16.11742
G1 X5.620 Y36.362 E16.18195
G1 X5.489 Y37.509 E16.25122
G1 X5.411 Y38.702 E16.32297
G1 X5.374 Y39.893 E16.39446
G1 X5.380 Y42.326 E16.54047
G1 X6.930 Y44.070 E16.68046
G1 X6.434 Y44.521 E16.72070
G1 X5.490 Y45.443 E16.79986
G1 X5.024 Y45.862 E16.83743
G1 X4.538 Y46.238 E16.87432
G1 X4.236 Y46.424 E16.89561
G1 X3.005 Y46.093 E16.97207
G1 X3.046 Y45.784 E16.99074
G1 X4.014 Y45.784 E17.04880
G1 X4.316 Y43.367 E17.19498
G1 X3.674 Y42.183 E17.27579
G1 X3.380 Y41.052 E17.34585
G1 X3.238 Y39.710 E17.42688
G1 X3.202 Y38.217 E17.51644
G1 X3.211 Y35.020 E17.70828
G1 X3.102 Y33.035 E17.82755
G1 X1.973 Y32.471 E17.90328
G1 X1.003 Y33.871 E18.00549
G1 X0.463 Y34.835 E18.07177
G1 X-0.000 Y35.838 E18.13808
G1 X-0.407 Y36.876 E18.20499
G1 X-0.779 Y37.946 E18.27295
G1 X-1.551 Y40.365 E18.42531
G1 X-1.281 Y41.547 E18.49802
G1 X-1.514 Y41.648 E18.51327
G1 X-2.112 Y40.758 E18.57755
G1 X-3.381 Y38.411 E18.73766
G1 X-4.384 Y36.162 E18.88541
G1 X-4.672 Y35.362 E18.93645
G1 X-2.328 Y34.811 E19.08094
G1 X-1.017 Y34.122 E19.16981
G1 X0.048 Y33.233 E19.25307
G1 X0.944 Y32.253 E19.33272
G1 X1.754 Y31.272 E19.40903
G1 X2.555 Y30.369 E19.48147
G1 X3.709 Y29.345 E19.57403
G1 X3.709 Y25.555 E19.80146
G1 X4.001 Y25.512 E19.81915
G1 X4.683 Y27.843 E19.96488
G1 X5.146 Y29.652 E20.07690
G1 X5.309 Y30.446 E20.12557
G1 X5.430 Y31.447 E20.18603
G1 X6.977 Y32.179 E20.28872
G1 X7.527 Y32.459 E20.32577
G1 X8.021 Y32.755 E20.36029
G1 X8.444 Y33.074 E20.39208
G1 X8.787 Y33.426 E20.42159
G1 X9.032 Y33.797 E20.44822
G1 X9.849 Y36.704 E20.62941
G1 X9.849 Y37.537 E20.67941
G1 X11.126 Y37.513 E20.75603
G1 X11.585 Y37.537 E20.78363
G1 X11.900 Y37.599 E20.80285
G1 X12.595 Y37.889 E20.84805
G1 X13.102 Y37.119 E20.90337
G1 X13.428 Y37.297 E20.92563
G1 X13.024 Y38.204 E20.98521
G1 X12.664 Y38.882 E21.03123
G1 X12.189 Y39.713 E21.08868
G1 X11.668 Y40.573 E21.14898
G1 X11.173 Y41.341 E21.20384
G1 X10.786 Y41.878 E21.24352
G1 X10.629 Y42.038 E21.25700
G1 X10.256 Y42.220 E21.28187
G1 X9.196 Y42.685 E21.35132
G1 X9.083 Y42.539 E21.36241
G1 X10.053 Y41.276 E21.45797
G1 X10.213 Y39.759 E21.54950
G1 X9.808 Y38.370 E21.63631
G1 X10.193 Y37.260 F12000.000
G1 X5.661 Y31.283
G1 X4.083 Y24.988
G1 X3.538 Y20.309
G1 X3.776 Y14.944
G1 X12.227 Y15.307
G1 X12.870 Y15.165
G1 X12.904 Y15.158
G1 X12.147 Y25.605
G1 X12.244 Y25.414
G1 X12.119 Y25.025 F540.000 E21.66083
G1 X12.059 Y23.754 E21.73716
G1 X12.152 Y22.526 E21.81108
G1 X12.595 Y22.548 E21.83774
G1 X12.553 Y24.373 E21.94732
G1 X13.803 Y24.252 E22.02266
G1 X13.860 Y24.392 E22.03172
G1 X13.076 Y25.010 E22.09168
G1 X12.604 Y25.276 E22.12412
G1 X12.311 Y25.388 E22.14298
G1 X12.147 Y25.605 F12000.000
G1 X12.904 Y15.158
G1 X12.870 Y15.165
G1 X12.227 Y15.307
G1 X10.222 Y15.750
G1 X10.810 Y15.556
G1 X9.041 Y15.491 F540.000 E22.24922
G1 X7.710 Y15.333 E22.32962
G1 X7.747 Y14.900 E22.35568
G1 X9.273 Y14.979 E22.44736
G1 X10.837 Y15.108 E22.54152
G1 X10.815 Y15.484 E22.56412
G1 X0.161 Y14.358 F12000.000
G1 X0.124 Y14.764 F540.000 E22.58860
G1 X-1.264 Y14.711 E22.67195
G1 X-2.335 Y14.544 E22.73695
G1 X-3.147 Y14.225 E22.78933
G1 X-3.072 Y13.921 E22.80813
G1 X-2.038 Y14.040 E22.87059
G1 X0.090 Y14.348 E22.99955
G1 X-2.303 Y14.751 F12000.000
G1 X3.776 Y14.944
G1 X12.227 Y15.307
G1 X12.870 Y15.165
G1 X12.904 Y15.158
G1 X12.751 Y24.131
G1 X19.220 Y24.132
G1 X20.547 Y29.756
G1 X19.609 Y28.152
G1 X19.974 Y28.104 F540.000 E23.02164
G1 X20.345 Y29.807 E23.12620
G1 X21.266 Y31.400 E23.23663
G1 X21.081 Y31.561 E23.25128
G1 X19.686 Y30.475 E23.35736
G1 X19.612 Y28.224 E23.49252
G1 X20.547 Y29.756 F12000.000
G1 X22.752 Y32.251
G1 X25.514 Y33.752
G1 X24.507 Y32.939
G1 X26.608 Y33.093 F540.000 E23.61893
G1 X28.447 Y33.060 E23.72932
G1 X28.478 Y33.459 E23.75331
G1 X27.168 Y33.639 E23.83266
G1 X26.341 Y33.643 E23.88229
G1 X25.560 Y33.557 E23.92943
G1 X24.452 Y33.325 E23.99734
G1 X24.497 Y33.010 E24.01640
G1 X25.514 Y33.752 F12000.000
G1 X22.752 Y32.251
G1 X20.547 Y29.756
G1 X19.919 Y24.267
G1 X27.380 Y24.971
G1 X28.775 Y19.159
G1 X27.771 Y21.929
G1 X28.207 Y17.023 F540.000 E24.31193
G1 X28.658 Y17.054 E24.33909
G1 X28.558 Y19.117 E24.46301
G1 X28.222 Y21.978 E24.63584
G1 X27.843 Y21.937 E24.65872
G1 X28.790 Y21.327 F12000.000
G1 X28.241 Y25.627 F432.000 E24.91884
G1 X27.688 Y25.795 E24.95352
G1 X26.709 Y25.780 E25.01224
G1 X25.503 Y25.600 E25.08545
G1 X21.588 Y24.750 E25.32580
G1 X20.236 Y24.563 E25.40767
G1 X20.353 Y27.585 E25.58912
G1 X20.799 Y29.631 E25.71478
G1 X21.635 Y31.078 E25.81502
G1 X22.889 Y31.990 E25.90808
G1 X24.547 Y32.459 E26.01150
G1 X26.621 Y32.612 E26.13627
G1 X28.983 Y32.570 E26.27797
G1 X29.194 Y33.069 E26.31049
G1 X29.094 Y33.463 E26.33488
G1 X28.705 Y33.778 E26.36496
